X: 19839
T: Jerry's Beaver Hat
R: jig
M: 6/8
K: Dmajor
|:DFA d2 e|fdB BAF|AFA dAF|EDE GFE|
DFA d2 e|fdB BAF|AFA dAF|1 DED GFE:|2 DED D2e||
|:dfa afd|~g2g faf|dfa afd|cde ecA|
dfa afd|~g2g faf|(3Bcd B AFA|1 DFE D2e:|2 DED GFE||

